Server.internal.options.numOutputBusChannels = 8;
Server.internal.options.inDevice_("ASIO : ASIO4ALL v2");
Server.internal.options.outDevice_("ASIO : ASIO4ALL v2");
Server.internal.options.hardwareBufferSize = 256;
Server.internal.options.blockSize = 256;
